findly-builder/apps/searchassist/src/assets/icons/close-dropdown.svg

<svg width="10" height="9" viewBox="0 0 10 9" fill="none" xmlns="http://www.w3.org/2000/svg">
<path d="M5.61865 4.43263L9.24686 1.18348C9.41772 1.03047 9.41771 0.782405 9.24686 0.629401C9.076 0.476397 8.799 0.476398 8.62814 0.629401L4.99992 3.87856L1.37186 0.629689C1.201 0.476688 0.923993 0.476693 0.753142 0.6297C0.582291 0.782707 0.582297 1.03078 0.753154 1.18378L4.3812 4.43264L0.753141 7.68165C0.582286 7.83466 0.582286 8.08273 0.753141 8.23573C0.923996 8.38873 1.20101 8.38873 1.37186 8.23573L4.99993 4.9867L8.62815 8.23573C8.79901 8.38873 9.07602 8.38872 9.24687 8.23572C9.41772 8.08271 9.41772 7.83464 9.24686 7.68164L5.61865 4.43263Z" fill="#202124"/>
</svg>

<svg width="10" height="9" fill="none" xmlns="http://www.w3.org/2000/svg"><path d="m5.619 4.433 3.628-3.25a.364.364 0 0 0 0-.554.474.474 0 0 0-.619 0L5 3.88 1.372.629a.474.474 0 0 0-.619 0 .364.364 0 0 0 0 .555l3.628 3.249L.753 7.682a.364.364 0 0 0 0 .554.475.475 0 0 0 .619 0L5 4.986l3.628 3.25a.475.475 0 0 0 .619 0 .364.364 0 0 0 0-.554l-3.628-3.25Z" fill="#202124"/></svg>
